X: 1
T: Pogonip #2
C: Paul Machlis
R: jig
Z: 2012 John Chambers <jc:trillian.mit.edu>
M: 6/8
L: 1/8
K: Amix
|:\
"A"a2e efg | "D"fed "E"cBA | "A"aee efg | "D"fed "E"e3 |\
"A"a2e- efg | "D"fed "E"cBA | "C"ed=c "D"B2A | "Bm"ABd "E"e3 :|
|:\
"A"cA2 "Bm"d2A | "A/c#"e2A "G"BAG | "A"cA2 "Bm"d2A | "A/c#"eag "D"fed |\
"A"cA2 "Bm"d2A | "A/c#"e2A "G"BAG | "C"ed=c "D"B2A | "Bm"ABd "E"e3 :|
